X: 27
T:Carlisle Lasses
T:Lass o' Corrie Mill, The
M:4/4
L:1/8
R:Strathspey
K:F
C|"F"F>GA>F "C7"E<G "F"F2|"F"A>Bc>B "F7"A<c c2|"Bb"d>f "F"c>f "Gm"B>f "F
"A>f|
"Dm"(3agf (3edc "Bb"dcB "C7"(3ABG|!
"F"F>GA>F "C7"E<G "F"F2|"F"A>Bc>B "F7"A<c c2|"Bb"d>f "F"c>f "Gm"B>f "F"A
>f|
"Dm"(3agf "C7"efg "F"A<F F||!
B|"F"A<cc>B A<f f2|"C7"e<gg>e "Dm"f<a a2|"Gm"b>g "F"a>f "C7"g>e "F"f>g|
"Dm"(3agf (3edc "Bb"dcB "C7"(3ABG|!
"F"A<cc>B A<f f2|"C7"e<gg>e "Dm"f<a a2|"Gm"b>g "F"a>f "C7"g>e "F"f>g|
"Dm"(3agf "C7"efg "F"a<f f||!
